X:1
T:Title
%%score { ( 1 4 ) | ( 2 3 ) }
L:1/8
Q:1/4=100
M:4/4
K:G
V:1 treble nm="Grand Piano"
V:4 treble 
V:2 bass 
V:3 bass 
V:1
 G2 AG F2 G2 | [FB]3 [FA] A2 G2 | G2 AG F2 G2 | z4 A4 | G2 AG F2 G2 | [EA]3 [EB] [Ed]2 [Ec]2 | %6
w: Florence~Williams~Falconer * * * *||||||
 [A,^DG]2 .[A,DF]2 [Ed]2 [Ec]2 | [CFA]3 [DFB] C2 z2 | G8 | G8 |] %10
w: ||||
V:2
 z2 .C2 z4 | [D,D]3 [D,C] [G,CD]2 [G,B,D]2 | z2 .C2 z4 | z4 [D,D]4 | z2 .C2 z4 | %5
 [C,C]3 [B,,^G,] [A,,A,]2 [A,,A,]2 | C,2 z G [C,A,]2 [C,A,]2 | z4 G,4 | z4 z2 A,2 | [G,B,D]8 |] %10
V:3
 [G,B,D]2 [G,D]-[G,B,D] [G,_B,D]2 [G,=B,D]2 | x8 | [G,B,D]2 [G,D]-[G,B,D] [G,_B,D]2 [G,=B,D]2 | %3
 [A,,G,]3 [A,,G,] F,2 z2 | [G,B,D]2 [G,D]-[G,B,D] [G,_B,D]2 [G,=B,D]2 | x8 | z2 C,2 z4 | %7
 D,3 D, z2 B,2 | C,8 | x8 |] %10
V:4
 x8 | x8 | x8 | [^CA]3 [CB] z2 =C2 | x8 | x8 | x8 | z4 [DG]4 | [G,E]6 ^D2 | x8 |] %10

